X:4576
L:1/4
Q:1/4=160
M:4/4
K:C
"C" G c c B/A/ | G e e2 | e f/d/"G" B G | A B"C" c2 ::"G" d d/g/ g ^f |"D" ^f e e2 | c c/e/ e d | 
"G" d B G2 |"C" G c c B/A/ | G e e2 | e f/d/"G" B G |1 A B"C" c B/A/ :|2"G" A B"C" c2 |]

